modules/hawcons-filled/icons/icon-59-degree-fahrenheit.svg

<?xml version="1.0" encoding="UTF-8" standalone="no"?>
<svg width="32px" height="32px" viewBox="0 0 32 32" version="1.1" xmlns="http://www.w3.org/2000/svg" xmlns:xlink="http://www.w3.org/1999/xlink" xmlns:sketch="http://www.bohemiancoding.com/sketch/ns">
    <!-- Generator: Sketch 3.0.3 (7891) - http://www.bohemiancoding.com/sketch -->
    <title>icon 59 degree fahrenheit</title>
    <desc>Created with Sketch.</desc>
    <defs></defs>
    <g id="Page-1" stroke="none" stroke-width="1" fill="none" fill-rule="evenodd" sketch:type="MSPage">
        <g id="icon-59-degree-fahrenheit" sketch:type="MSArtboardGroup" fill="#929292">
            <path d="M9,14 C11.2091391,14 13,12.2091391 13,10 C13,7.79086089 11.2091391,6 9,6 C6.79086089,6 5,7.79086089 5,10 C5,12.2091391 6.79086089,14 9,14 L9,14 Z M9,12 C10.1045696,12 11,11.1045696 11,10 C11,8.89543045 10.1045696,8 9,8 C7.89543045,8 7,8.89543045 7,10 C7,11.1045696 7.89543045,12 9,12 L9,12 Z M20.0021863,6 C17.2395551,6 15,8.23603796 15,10.9952534 L15,25.0081969 C15,25.5559546 15.4438648,26 16,26 L16,26 C16.5522847,26 17,25.5536886 17,25.0024554 L17,17 L22.009222,17 C22.5564136,17 23,16.5561352 23,16 L23,16 C23,15.4477153 22.5490248,15 22.009222,15 L17,15 L17,11.0092545 C17,9.34728911 18.3486445,8 20.0003297,8 L26.0046024,8 C26.5543453,8 27,7.55613518 27,7 L27,7 C27,6.44771525 26.544239,6 25.9975267,6 L20.0021863,6 L20.0021863,6 Z" id="degree-fahrenheit" sketch:type="MSShapeGroup"></path>
        </g>
    </g>
</svg>

<svg width="32" height="32" xmlns="http://www.w3.org/2000/svg"><path d="M9 14a4 4 0 1 0 0-8 4 4 0 0 0 0 8zm0-2a2 2 0 1 0 0-4 2 2 0 0 0 0 4zm11.002-6A4.998 4.998 0 0 0 15 10.995v14.013c0 .548.444.992 1 .992.552 0 1-.446 1-.998V17h5.01c.546 0 .99-.444.99-1a1 1 0 0 0-.99-1H17v-3.99A3.008 3.008 0 0 1 20 8h6.005c.55 0 .995-.444.995-1 0-.552-.456-1-1.002-1h-5.996z" fill="#929292" fill-rule="evenodd"/></svg>
